svg/fluentui-system-icons/ic_fluent_code_block_32_regular.svg

<svg width="32" height="32" viewBox="0 0 32 32" fill="none" xmlns="http://www.w3.org/2000/svg">
<path d="M3 7.5C3 5.01472 5.01472 3 7.5 3H24.5C26.9853 3 29 5.01472 29 7.5V24.5C29 26.9853 26.9853 29 24.5 29H7.5C5.01472 29 3 26.9853 3 24.5V7.5ZM7.5 5C6.11929 5 5 6.11929 5 7.5V24.5C5 25.8807 6.11929 27 7.5 27H24.5C25.8807 27 27 25.8807 27 24.5V7.5C27 6.11929 25.8807 5 24.5 5H7.5ZM13.7071 10.2929C14.0976 10.6834 14.0976 11.3166 13.7071 11.7071L9.41421 16L13.7071 20.2929C14.0976 20.6834 14.0976 21.3166 13.7071 21.7071C13.3166 22.0976 12.6834 22.0976 12.2929 21.7071L7.29289 16.7071C6.90237 16.3166 6.90237 15.6834 7.29289 15.2929L12.2929 10.2929C12.6834 9.90237 13.3166 9.90237 13.7071 10.2929ZM18.2929 11.7071C17.9024 11.3166 17.9024 10.6834 18.2929 10.2929C18.6834 9.90237 19.3166 9.90237 19.7071 10.2929L24.7071 15.2929C25.0976 15.6834 25.0976 16.3166 24.7071 16.7071L19.7071 21.7071C19.3166 22.0976 18.6834 22.0976 18.2929 21.7071C17.9024 21.3166 17.9024 20.6834 18.2929 20.2929L22.5858 16L18.2929 11.7071Z" fill="#212121"/>
</svg>

<svg xmlns="http://www.w3.org/2000/svg" width="32" height="32"><path d="M3 7.5A4.5 4.5 0 0 1 7.5 3h17A4.5 4.5 0 0 1 29 7.5v17a4.5 4.5 0 0 1-4.5 4.5h-17A4.5 4.5 0 0 1 3 24.5v-17ZM7.5 5A2.5 2.5 0 0 0 5 7.5v17A2.5 2.5 0 0 0 7.5 27h17a2.5 2.5 0 0 0 2.5-2.5v-17A2.5 2.5 0 0 0 24.5 5h-17Zm6.207 5.293a1 1 0 0 1 0 1.414L9.414 16l4.293 4.293a1 1 0 0 1-1.414 1.414l-5-5a1 1 0 0 1 0-1.414l5-5a1 1 0 0 1 1.414 0Zm4.586 1.414a1 1 0 0 1 1.414-1.414l5 5a1 1 0 0 1 0 1.414l-5 5a1 1 0 0 1-1.414-1.414L22.586 16l-4.293-4.293Z"/></svg>
